icon/pk/landscape.svg

<svg viewBox="0 0 48 48" fill="none" xmlns="http://www.w3.org/2000/svg" height="1em" width="1em">
  <path d="M14 28C17 28 26.5 29.5 26.5 33C26.5 36.5 21.394 35.7386 19 36C16.9274 36 12 36 12 39C12 43 32.5447 44 36.5 44" stroke="black" stroke-width="4" stroke-linecap="round" stroke-linejoin="round"/>
  <path d="M31 15C31 10.7333 26.7297 4 20.805 4C14.8804 4 10.333 12 8.54511 19.4667C6.7572 26.9333 7.01261 36 7.01261 36" stroke="black" stroke-width="4" stroke-linecap="round" stroke-linejoin="round"/>
  <path d="M26 24C26 21.5 27.4 17 32 17C36 17 38.2 21.0424 39 24.5C39.8 27.9576 40 33 40 33" stroke="black" stroke-width="4" stroke-linecap="round" stroke-linejoin="round"/>
</svg>

<svg width="48" height="48" fill="none" xmlns="http://www.w3.org/2000/svg"><path d="M14 28c3 0 12.5 1.5 12.5 5s-5.106 2.739-7.5 3c-2.073 0-7 0-7 3 0 4 20.545 5 24.5 5" stroke="#000" stroke-width="4" stroke-linecap="round" stroke-linejoin="round"/><path d="M31 15c0-4.267-4.27-11-10.195-11-5.925 0-10.472 8-12.26 15.467C6.757 26.933 7.013 36 7.013 36M26 24c0-2.5 1.4-7 6-7 4 0 6.2 4.042 7 7.5.8 3.458 1 8.5 1 8.5" stroke="#000" stroke-width="4" stroke-linecap="round" stroke-linejoin="round"/></svg>
